public/images/patterns/github-thumbnail.svg

<svg width="50" height="50" viewBox="0 0 50 50" fill="none" xmlns="http://www.w3.org/2000/svg">
<path d="M12.7807 5.38461C9.1535 5.38414 6.06145 8.0823 5.48071 11.7547C4.89996 15.4271 7.002 18.9894 10.4434 20.1649C10.8141 20.2334 10.9467 20 10.9467 19.7992C10.9467 19.619 10.9408 19.1415 10.9386 18.5066C8.88149 18.9628 8.44709 17.4893 8.44709 17.4893C8.31166 17.0308 8.02053 16.6372 7.62647 16.38C6.9593 15.9093 7.67762 15.9199 7.67762 15.9199C8.15255 15.9867 8.57055 16.2754 8.80958 16.7016C9.01191 17.0789 9.35278 17.3577 9.75645 17.4761C10.1601 17.5944 10.5932 17.5425 10.9594 17.3319C10.9938 16.9472 11.1606 16.5876 11.4301 16.3176C9.78884 16.1268 8.0631 15.4759 8.0631 12.5691C8.05399 11.8173 8.32618 11.0905 8.82367 10.5382C8.59857 9.88381 8.62508 9.166 8.8978 8.53092C8.8978 8.53092 9.51827 8.32639 10.9304 9.30723C12.1416 8.9666 13.4198 8.9666 14.631 9.30723C16.0439 8.32563 16.6636 8.53092 16.6636 8.53092C16.9376 9.1657 16.9642 9.88401 16.7378 10.5382C17.2371 11.0904 17.5091 11.8191 17.4969 12.5721C17.4969 15.4865 15.7696 16.1268 14.1225 16.3146C14.4778 16.6872 14.66 17.1983 14.6228 17.7182C14.6228 18.7325 14.614 19.5506 14.614 19.7992C14.614 20.0022 14.7459 20.2379 15.1232 20.1634C18.5632 18.9859 20.663 15.4234 20.081 11.752C19.4991 8.08053 16.4072 5.38376 12.7807 5.38461Z" fill="white"/>
<path d="M36.4493 29.0533C32.8221 29.0528 29.73 31.7509 29.1493 35.4234C28.5685 39.0958 30.6706 42.6581 34.112 43.8336C34.4826 43.902 34.6153 43.6686 34.6153 43.4679C34.6153 43.2877 34.6094 42.8102 34.6072 42.1753C32.5501 42.6315 32.1157 41.1579 32.1157 41.1579C31.9802 40.6994 31.6891 40.3058 31.295 40.0486C30.6279 39.5779 31.3462 39.5886 31.3462 39.5886C31.8211 39.6554 32.2391 39.944 32.4782 40.3702C32.6805 40.7475 33.0214 41.0264 33.425 41.1447C33.8287 41.2631 34.2617 41.2112 34.6279 41.0005C34.6623 40.6158 34.8292 40.2562 35.0987 39.9862C33.4574 39.7954 31.7317 39.1445 31.7317 36.2377C31.7226 35.4859 31.9948 34.7591 32.4922 34.2069C32.2672 33.5524 32.2937 32.8346 32.5664 32.1996C32.5664 32.1996 33.1868 31.995 34.599 32.9759C35.8102 32.6352 37.0884 32.6352 38.2996 32.9759C39.7125 31.9943 40.3322 32.1996 40.3322 32.1996C40.6062 32.8343 40.6327 33.5526 40.4064 34.2069C40.9057 34.7591 41.1776 35.4878 41.1654 36.2408C41.1654 39.1552 39.4382 39.7954 37.7911 39.9832C38.1464 40.3558 38.3286 40.867 38.2914 41.3868C38.2914 42.4011 38.2825 43.2192 38.2825 43.4679C38.2825 43.6709 38.4145 43.9066 38.7918 43.8321C42.2318 42.6546 44.3316 39.0921 43.7496 35.4206C43.1677 31.7492 40.0758 29.0524 36.4493 29.0533Z" fill="white"/>
<path d="M12.7807 29.0533C9.1535 29.0528 6.06145 31.7509 5.48071 35.4234C4.89996 39.0958 7.002 42.6581 10.4434 43.8336C10.8141 43.902 10.9467 43.6686 10.9467 43.4679C10.9467 43.2877 10.9408 42.8102 10.9386 42.1753C8.88149 42.6315 8.44709 41.1579 8.44709 41.1579C8.31166 40.6994 8.02053 40.3058 7.62647 40.0486C6.9593 39.5779 7.67762 39.5886 7.67762 39.5886C8.15255 39.6554 8.57055 39.944 8.80958 40.3702C9.01191 40.7475 9.35278 41.0264 9.75645 41.1447C10.1601 41.2631 10.5932 41.2112 10.9594 41.0005C10.9938 40.6158 11.1606 40.2562 11.4301 39.9862C9.78884 39.7954 8.0631 39.1445 8.0631 36.2377C8.05399 35.4859 8.32618 34.7591 8.82367 34.2069C8.59857 33.5524 8.62508 32.8346 8.8978 32.1996C8.8978 32.1996 9.51827 31.995 10.9304 32.9759C12.1416 32.6352 13.4198 32.6352 14.631 32.9759C16.0439 31.9943 16.6636 32.1996 16.6636 32.1996C16.9376 32.8343 16.9642 33.5526 16.7378 34.2069C17.2371 34.7591 17.5091 35.4878 17.4969 36.2408C17.4969 39.1552 15.7696 39.7954 14.1225 39.9832C14.4778 40.3558 14.66 40.867 14.6228 41.3868C14.6228 42.4011 14.614 43.2192 14.614 43.4679C14.614 43.6709 14.7459 43.9066 15.1232 43.8321C18.5632 42.6546 20.663 39.0921 20.081 35.4206C19.4991 31.7492 16.4072 29.0524 12.7807 29.0533Z" fill="white"/>
<path d="M36.4493 5.38461C32.8221 5.38414 29.73 8.0823 29.1493 11.7547C28.5685 15.4271 30.6706 18.9894 34.112 20.1649C34.4826 20.2334 34.6153 20 34.6153 19.7992C34.6153 19.619 34.6094 19.1415 34.6072 18.5066C32.5501 18.9628 32.1157 17.4893 32.1157 17.4893C31.9802 17.0308 31.6891 16.6372 31.295 16.38C30.6279 15.9093 31.3462 15.9199 31.3462 15.9199C31.8211 15.9867 32.2391 16.2754 32.4782 16.7016C32.6805 17.0789 33.0214 17.3577 33.425 17.4761C33.8287 17.5944 34.2617 17.5425 34.6279 17.3319C34.6623 16.9472 34.8292 16.5876 35.0987 16.3176C33.4574 16.1268 31.7317 15.4759 31.7317 12.5691C31.7226 11.8173 31.9948 11.0905 32.4922 10.5382C32.2672 9.88381 32.2937 9.166 32.5664 8.53092C32.5664 8.53092 33.1868 8.32639 34.599 9.30723C35.8102 8.9666 37.0884 8.9666 38.2996 9.30723C39.7125 8.32563 40.3322 8.53092 40.3322 8.53092C40.6062 9.1657 40.6327 9.88401 40.4064 10.5382C40.9057 11.0904 41.1776 11.8191 41.1654 12.5721C41.1654 15.4865 39.4382 16.1268 37.7911 16.3146C38.1464 16.6872 38.3286 17.1983 38.2914 17.7182C38.2914 18.7325 38.2825 19.5506 38.2825 19.7992C38.2825 20.0022 38.4145 20.2379 38.7918 20.1634C42.2318 18.9859 44.3316 15.4234 43.7496 11.752C43.1677 8.08053 40.0758 5.38376 36.4493 5.38461Z" fill="white"/>
</svg>

<svg xmlns="http://www.w3.org/2000/svg" width="50" height="50" fill="none"><path fill="#fff" d="M12.78 5.385c-3.627 0-6.719 2.697-7.3 6.37-.58 3.672 1.522 7.234 4.963 8.41.371.068.504-.165.504-.366 0-.18-.006-.657-.008-1.292-2.058.456-2.492-1.018-2.492-1.018a1.998 1.998 0 0 0-.82-1.109c-.668-.47.05-.46.05-.46.476.067.894.355 1.133.782.202.377.543.656.946.774a1.54 1.54 0 0 0 1.203-.144c.035-.385.202-.744.471-1.014-1.641-.191-3.367-.842-3.367-3.749a2.982 2.982 0 0 1 .76-2.03 2.793 2.793 0 0 1 .075-2.008s.62-.205 2.032.776a6.828 6.828 0 0 1 3.701 0c1.413-.981 2.033-.776 2.033-.776.274.635.3 1.353.074 2.007.5.552.771 1.281.759 2.034 0 2.915-1.727 3.555-3.374 3.743.355.372.537.883.5 1.403 0 1.015-.009 1.833-.009 2.081 0 .203.132.439.51.364 3.44-1.177 5.539-4.74 4.957-8.411-.582-3.671-3.674-6.368-7.3-6.367ZM36.45 29.053c-3.628 0-6.72 2.698-7.3 6.37-.581 3.673 1.52 7.235 4.962 8.41.37.069.503-.164.503-.365 0-.18-.006-.658-.008-1.293-2.057.457-2.491-1.017-2.491-1.017a1.999 1.999 0 0 0-.821-1.11c-.667-.47.051-.46.051-.46.475.067.893.356 1.132.782.203.378.543.656.947.775A1.54 1.54 0 0 0 34.628 41c.034-.384.201-.744.47-1.014-1.64-.19-3.366-.841-3.366-3.748a2.982 2.982 0 0 1 .76-2.031 2.794 2.794 0 0 1 .074-2.007s.62-.205 2.033.776a6.827 6.827 0 0 1 3.7 0c1.413-.982 2.033-.776 2.033-.776.274.634.3 1.353.074 2.007.5.552.772 1.28.76 2.034 0 2.914-1.728 3.554-3.375 3.742.355.373.538.884.5 1.404 0 1.014-.008 1.832-.008 2.08 0 .204.131.44.509.365 3.44-1.177 5.54-4.74 4.958-8.411-.582-3.672-3.674-6.369-7.3-6.368ZM12.78 29.053c-3.627 0-6.719 2.698-7.3 6.37-.58 3.673 1.522 7.235 4.963 8.41.371.069.504-.164.504-.365 0-.18-.006-.658-.008-1.293-2.058.457-2.492-1.017-2.492-1.017a1.998 1.998 0 0 0-.82-1.11c-.668-.47.05-.46.05-.46.476.067.894.356 1.133.782.202.378.543.656.946.775A1.54 1.54 0 0 0 10.96 41c.035-.384.202-.744.471-1.014-1.641-.19-3.367-.841-3.367-3.748a2.981 2.981 0 0 1 .76-2.031 2.793 2.793 0 0 1 .075-2.007s.62-.205 2.032.776a6.827 6.827 0 0 1 3.701 0c1.413-.982 2.033-.776 2.033-.776.274.634.3 1.353.074 2.007.5.552.771 1.28.759 2.034 0 2.914-1.727 3.554-3.374 3.742.355.373.537.884.5 1.404 0 1.014-.009 1.832-.009 2.08 0 .204.132.44.51.365 3.44-1.177 5.539-4.74 4.957-8.411-.582-3.672-3.674-6.369-7.3-6.368ZM36.45 5.385c-3.628 0-6.72 2.697-7.3 6.37-.581 3.672 1.52 7.234 4.962 8.41.37.068.503-.165.503-.366 0-.18-.006-.657-.008-1.292-2.057.456-2.491-1.018-2.491-1.018a1.999 1.999 0 0 0-.821-1.109c-.667-.47.051-.46.051-.46.475.067.893.355 1.132.782.203.377.543.656.947.774a1.54 1.54 0 0 0 1.203-.144c.034-.385.201-.744.47-1.014-1.64-.191-3.366-.842-3.366-3.749a2.982 2.982 0 0 1 .76-2.03 2.794 2.794 0 0 1 .074-2.008s.62-.205 2.033.776a6.828 6.828 0 0 1 3.7 0c1.413-.981 2.033-.776 2.033-.776.274.635.3 1.353.074 2.007.5.552.772 1.281.76 2.034 0 2.915-1.728 3.555-3.375 3.743.355.372.538.883.5 1.403 0 1.015-.008 1.833-.008 2.081 0 .203.131.439.509.364 3.44-1.177 5.54-4.74 4.958-8.411-.582-3.671-3.674-6.368-7.3-6.367Z"/></svg>
